storage/app/icons/phosphoricons/thin/file-text-thin.svg

<svg xmlns="http://www.w3.org/2000/svg" fill="currentColor" viewBox="0 0 256 256"><path d="m210.83 85.17-56-56A4 4 0 0 0 152 28H56a12 12 0 0 0-12 12v176a12 12 0 0 0 12 12h144a12 12 0 0 0 12-12V88a4 4 0 0 0-1.17-2.83M156 41.65 198.34 84H156ZM200 220H56a4 4 0 0 1-4-4V40a4 4 0 0 1 4-4h92v52a4 4 0 0 0 4 4h52v124a4 4 0 0 1-4 4m-36-84a4 4 0 0 1-4 4H96a4 4 0 0 1 0-8h64a4 4 0 0 1 4 4m0 32a4 4 0 0 1-4 4H96a4 4 0 0 1 0-8h64a4 4 0 0 1 4 4"/></svg>

<svg xmlns="http://www.w3.org/2000/svg" viewBox="0 0 256 256" fill="currentColor"><path d="M210.83,85.17l-56-56A4,4,0,0,0,152,28H56A12,12,0,0,0,44,40V216a12,12,0,0,0,12,12H200a12,12,0,0,0,12-12V88A4,4,0,0,0,210.83,85.17ZM156,41.65,198.34,84H156ZM200,220H56a4,4,0,0,1-4-4V40a4,4,0,0,1,4-4h92V88a4,4,0,0,0,4,4h52V216A4,4,0,0,1,200,220Zm-36-84a4,4,0,0,1-4,4H96a4,4,0,0,1,0-8h64A4,4,0,0,1,164,136Zm0,32a4,4,0,0,1-4,4H96a4,4,0,0,1,0-8h64A4,4,0,0,1,164,168Z"/></svg>
